data/styles/clear/style-night/symbols/military-m.svg

<svg height="24" viewBox="0 0 24 24" width="24"><g fill="none" fill-rule="evenodd"><circle cx="12" cy="12" fill="#fff" opacity=".4" r="12"/><circle cx="12" cy="12" fill="#3d3d36" r="11"/><path d="m14.3301458 11.4634121h2.4162044c1.0371189 0 1.8783943 1.1727951 1.8783943 2.6209833h-1.4119975c.0255002.0935434.0389645.1908729.0389645.2907983 0 .7228148-.793732 1.6248063-1.6620982 1.6248063h-8.16524588c-.86836625 0-1.57287411-.9019915-1.57287411-1.6248063 0-.099933.01344057-.1972615.03889703-.2907983h-.89039034c0-1.4481882.84127539-2.6209833 1.87924574-2.6209833h.67523419v-3.4634121h5.69052977l.5289477 1.68823402h5.2260426v.83610358h-4.9640795z" fill="#fff" opacity=".6"/></g></svg>

<svg width="24" height="24" viewBox="0 0 24 24">
  <g fill="none" fill-rule="evenodd">
    <circle cx="12" cy="12" r="12" fill="#FFF" opacity=".4"/>
    <circle cx="12" cy="12" r="11" fill="#3D3C36"/>
    <path fill="#FFF" d="M14.3301458,11.4634121 L16.7463502,11.4634121 C17.7834691,11.4634121 18.6247445,12.6362072 18.6247445,14.0843954 L17.212747,14.0843954 C17.2382472,14.1779388 17.2517115,14.2752683 17.2517115,14.3751937 C17.2517115,15.0980085 16.4579795,16 15.5896133,16 L7.42436742,16 C6.55600117,16 5.85149331,15.0980085 5.85149331,14.3751937 C5.85149331,14.2752607 5.86493388,14.1779322 5.89039034,14.0843954 L5,14.0843954 C5,12.6362072 5.84127539,11.4634121 6.87924574,11.4634121 L7.55447993,11.4634121 L7.55447993,8 L13.2450097,8 L13.7739574,9.68823402 L19,9.68823402 L19,10.5243376 L14.0359205,10.5243376 L14.3301458,11.4634121 Z" opacity=".6"/>
  </g>
</svg>
